icons/round/action/ic_list_24px.svg

<svg xmlns="http://www.w3.org/2000/svg" height="24" viewBox="0 0 24 24" width="24"><g fill="none"><path d="M0 0h24v24H0V0z"/><path d="M0 0h24v24H0V0z" opacity=".87"/></g><path d="M4 13c.55 0 1-.45 1-1s-.45-1-1-1-1 .45-1 1 .45 1 1 1zm0 4c.55 0 1-.45 1-1s-.45-1-1-1-1 .45-1 1 .45 1 1 1zm0-8c.55 0 1-.45 1-1s-.45-1-1-1-1 .45-1 1 .45 1 1 1zm4 4h12c.55 0 1-.45 1-1s-.45-1-1-1H8c-.55 0-1 .45-1 1s.45 1 1 1zm0 4h12c.55 0 1-.45 1-1s-.45-1-1-1H8c-.55 0-1 .45-1 1s.45 1 1 1zM7 8c0 .55.45 1 1 1h12c.55 0 1-.45 1-1s-.45-1-1-1H8c-.55 0-1 .45-1 1zm-3 5c.55 0 1-.45 1-1s-.45-1-1-1-1 .45-1 1 .45 1 1 1zm0 4c.55 0 1-.45 1-1s-.45-1-1-1-1 .45-1 1 .45 1 1 1zm0-8c.55 0 1-.45 1-1s-.45-1-1-1-1 .45-1 1 .45 1 1 1zm4 4h12c.55 0 1-.45 1-1s-.45-1-1-1H8c-.55 0-1 .45-1 1s.45 1 1 1zm0 4h12c.55 0 1-.45 1-1s-.45-1-1-1H8c-.55 0-1 .45-1 1s.45 1 1 1zM7 8c0 .55.45 1 1 1h12c.55 0 1-.45 1-1s-.45-1-1-1H8c-.55 0-1 .45-1 1z"/></svg>

<svg xmlns="http://www.w3.org/2000/svg" enable-background="new 0 0 24 24" height="24" viewBox="0 0 24 24" width="24"><g><path d="M0,0h24v24H0V0z" fill="none"/></g><g><path d="M4,13c0.55,0,1-0.45,1-1s-0.45-1-1-1s-1,0.45-1,1S3.45,13,4,13z M4,17c0.55,0,1-0.45,1-1s-0.45-1-1-1s-1,0.45-1,1 C3,16.55,3.45,17,4,17z M4,9c0.55,0,1-0.45,1-1S4.55,7,4,7S3,7.45,3,8S3.45,9,4,9z M8,13h12c0.55,0,1-0.45,1-1s-0.45-1-1-1H8 c-0.55,0-1,0.45-1,1S7.45,13,8,13z M8,17h12c0.55,0,1-0.45,1-1s-0.45-1-1-1H8c-0.55,0-1,0.45-1,1C7,16.55,7.45,17,8,17z M7,8 c0,0.55,0.45,1,1,1h12c0.55,0,1-0.45,1-1s-0.45-1-1-1H8C7.45,7,7,7.45,7,8z M4,13c0.55,0,1-0.45,1-1s-0.45-1-1-1s-1,0.45-1,1 S3.45,13,4,13z M4,17c0.55,0,1-0.45,1-1s-0.45-1-1-1s-1,0.45-1,1C3,16.55,3.45,17,4,17z M4,9c0.55,0,1-0.45,1-1S4.55,7,4,7 S3,7.45,3,8S3.45,9,4,9z M8,13h12c0.55,0,1-0.45,1-1s-0.45-1-1-1H8c-0.55,0-1,0.45-1,1S7.45,13,8,13z M8,17h12c0.55,0,1-0.45,1-1 s-0.45-1-1-1H8c-0.55,0-1,0.45-1,1C7,16.55,7.45,17,8,17z M7,8c0,0.55,0.45,1,1,1h12c0.55,0,1-0.45,1-1s-0.45-1-1-1H8 C7.45,7,7,7.45,7,8z"/></g></svg>
